Modules/BetterCms.Module.Root/Scss/assets/icons/editor-symbol.svg

<svg height="15" width="15" xmlns="http://www.w3.org/2000/svg" viewBox="0 0 15 15"><path fill="#303646" fill-rule="evenodd" d="m12.09 13.13h.19c.98 0 1.99-.43 2.25-.94.26-.52.47-.14.47.84v.19c0 .98-.8 1.78-1.78 1.78h-2.07c-.97 0-1.78-.71-1.78-1.57 0-.86.61-2.1 1.34-2.74 0 0 1.95-1.72 1.95-4.13 0-3.14-2.31-5.6-5.16-5.6-2.85 0-5.16 2.46-5.16 5.6 0 2.41 1.95 4.13 1.95 4.13.73.64 1.33 1.88 1.33 2.74 0 .86-.8 1.57-1.77 1.57h-2.07c-.98 0-1.78-.8-1.78-1.78v-.19c0-.98.21-1.36.47-.84.26.51 1.27.94 2.25.94h.19c.98 0 1.78-.11 1.78-.24 0-.13-.66-.71-1.45-1.27 0 0-3.24-2.3-3.24-5.06 0-3.62 3.36-6.56 7.5-6.56 4.14 0 7.5 2.94 7.5 6.56 0 2.76-3.24 5.06-3.24 5.06-.79.56-1.45 1.14-1.45 1.27 0 .13.8.24 1.78.24"/></svg>

<?xml version="1.0" encoding="utf-8"?>
<!-- Generator: Avocode 2.4.5 - http://avocode.com -->
<svg height="15" width="15" xmlns:xlink="http://www.w3.org/1999/xlink" xmlns="http://www.w3.org/2000/svg" viewBox="0 0 15 15">
    <path fill="#303646" fill-rule="evenodd" d="M 12.09 13.13 L 12.28 13.13 C 13.26 13.13 14.27 12.7 14.53 12.19 C 14.79 11.67 15 12.05 15 13.03 L 15 13.22 C 15 14.2 14.2 15 13.22 15 L 11.15 15 C 10.18 15 9.37 14.29 9.37 13.43 C 9.37 12.57 9.98 11.33 10.71 10.69 C 10.71 10.69 12.66 8.97 12.66 6.56 C 12.66 3.42 10.35 0.96 7.5 0.96 C 4.65 0.96 2.34 3.42 2.34 6.56 C 2.34 8.97 4.29 10.69 4.29 10.69 C 5.02 11.33 5.62 12.57 5.62 13.43 C 5.62 14.29 4.82 15 3.85 15 L 1.78 15 C 0.8 15 0 14.2 0 13.22 L 0 13.03 C 0 12.05 0.21 11.67 0.47 12.19 C 0.73 12.7 1.74 13.13 2.72 13.13 L 2.91 13.13 C 3.89 13.13 4.69 13.02 4.69 12.89 C 4.69 12.76 4.03 12.18 3.24 11.62 C 3.24 11.62 0 9.32 0 6.56 C 0 2.94 3.36 0 7.5 0 C 11.64 0 15 2.94 15 6.56 C 15 9.32 11.76 11.62 11.76 11.62 C 10.97 12.18 10.31 12.76 10.31 12.89 C 10.31 13.02 11.11 13.13 12.09 13.13 Z M 12.09 13.13" />
</svg>
